X:1
T:Water Music Hornpipe
T:Water Music Hornpipe
T:George Frideric Handel
C:George Frideric Handel
L:1/8
M:3/2
K:Dmin
V:1 treble 
V:1
 a4 g2 fe f2 d2 | c2 BA B2 AG AB c2 | f4 e2 dc d2 f2 | b4 a2 gf g2 c2 | b4 g2 fe f2 d2 | %5
 c2 BA B2 AG AB c2 | F2 d4 ef =B2 G2 | c2 E2 D2 =B2 c4 :: g4 e2 dc f2 g2 | a2 A4 d2 ^c2 A2 | %10
 ba g2 ag f2 gf e2 | f2 d2 A2 G2 F2 D2 | c4 ^FG A2 D2 d2 | Bc d2 G2 g2 e2 c2 | g4 B4 A2 GF | %15
 G2 f2 c2 e2 f4 :| %16

